name_svg/Victoriae.svg

<?xml version="1.0" encoding="UTF-8"?>
<svg id="_레이어_2" data-name="레이어 2" xmlns="http://www.w3.org/2000/svg" viewBox="0 0 969.96 208.57">
  <g id="kerning">
    <g>
      <g>
        <path d="M260.66,200.87c-14,0-23.36-8.76-23.36-34.8v-99.36h0v-16.25l-46.89,34.68c-1.1.82-.16,2.52,1.13,2.04,3.65-1.39,8.11-4.24,12.81-6.78,6.81-3.67,15.07,1.33,15.07,9.06v78.36c0,21.13-7.28,33.05-18.72,33.05,0,0-4.74-.37-7.42,0-6.39.88-18.66,7.69-7.76,7.69h88.51v-7.69h-13.36Z"/>
        <path d="M215.63,24.3v17.13l20.92-15.34V0l-13.69,10.04c-4.54,3.33-7.22,8.62-7.22,14.26Z"/>
      </g>
      <path d="M454.92,162.16v5.4c0,23.48-28.27,33.31-28.27,33.31h-.54c-10.77,0-19.75-13.17-19.75-22.52v-98.98l39.45-27.21v-6.07l-39.45,27.22V16.25h0V0l-46.89,34.68c-1.1.82-.16,2.52,1.13,2.04,3.65-1.39,8.11-4.24,12.81-6.78,6.81-3.67,15.07,1.33,15.07,9.06v46.64l-17.97,12.39v6.07l17.97-12.39v56.41h.01v30.43c0,16.22,9.19,30.02,24.46,30.02h16.65c22.18-9.25,43.23-22.03,43.23-47.56v-11.19l-17.89,12.34Z"/>
      <path d="M564.16,89.01c-3.14-5.32-8.27-6.54-14.52-3.33l-66.25,45.73v29.96c0,33.18,22.59,47.2,40.48,47.2,0,0,43.66-12.21,43.66-47.56v-55.35c0-7.41-1.22-12.99-3.38-16.64ZM549.64,149.36v18.2c0,26.84-25.62,33.31-25.62,33.31h-2.51c-5.31-.39-20.23-7.36-20.23-42.69v-32.68l32.22-22.22c3.49-1.87,7.33-2.36,10.39-.29,1.26.85,2.39,2.14,3.3,3.95,1.51,2.97,2.44,7.34,2.44,13.49v28.93h0Z"/>
      <path d="M665.64,100.02l-44.34,30.59v-42.93s-46.89,34.68-46.89,34.68c-1.1.82-.16,2.52,1.13,2.04,3.65-1.39,8.11-4.24,12.81-6.78,6.81-3.67,15.07,1.33,15.07,9.06l.02,41.15c0,21.13-2.56,31.67-17.4,33.05-6.43.6-18.66,7.69-7.76,7.69h69.6v-7.69h-3.2c-18.12,0-23.36-8.76-23.36-34.8h-.02v-28.99s44.34-30.86,44.34-30.86v37.73l17.89-12.34v-43.95l-17.89,12.34Z"/>
      <path d="M881.5,200.87c-18.12,0-23.36-8.76-23.36-34.8h-.02v-4.48c0-.2,0-.39,0-.59v-54.72c0-18.19-7.36-25.4-17.89-19.97l-47.57,32.82-18.09,12.24v32.24l18.09-12.48v-25.5l29.64-20.63c7.57-5.27,17.93-4.46,17.93,16.05v13.49s-65.66,45.29-65.66,45.29v10.64c0,9.99,12,18.09,23.91,18.09h22.73c7.21-3.01,13.62-5.96,19.01-9.59h0c0,1.89,4.72,9.59,14.37,9.59h30.09v-7.69h-3.2ZM820.46,200.87h-8.66c-10.56,0-19.13-8.56-19.13-19.13v-8.3l47.57-32.81v26.93c0,26.84-19.78,33.31-19.78,33.31Z"/>
      <g>
        <path d="M758.3,200.87c-14,0-23.36-8.76-23.36-34.8v-99.36h0v-16.25l-46.89,34.68c-1.1.82-.16,2.52,1.13,2.04,3.65-1.39,8.11-4.24,12.81-6.78,6.81-3.67,15.07,1.33,15.07,9.06v78.36c0,21.13-7.28,33.05-18.72,33.05,0,0-4.74-.37-7.42,0-6.39.88-18.66,7.69-7.76,7.69h88.51v-7.69h-13.36Z"/>
        <path d="M713.26,24.3v17.13l20.92-15.34V0l-13.69,10.04c-4.54,3.33-7.22,8.62-7.22,14.26Z"/>
      </g>
      <path d="M952.07,95.02l-47.57,32.82h0s-15.88,10.96-15.88,10.96v39.76c0,16.22,9.19,30.02,24.46,30.02h19.98c22.18-9.25,36.91-17.95,36.91-47.56v-11.19l-17.89,12.34v5.4c0,26.84-19.78,33.31-19.78,33.31h-6.04c-10.79,0-19.54-8.75-19.54-19.54h0s62.07-42.82,62.07-42.82l1.19-.82v-55.02l-17.89,12.34ZM906.71,132.8l45.36-31.57v42.73l-45.36,31.29v-42.45Z"/>
      <path d="M342.01,167.56c0,26.84-20.32,33.31-20.32,33.31h-6.2c-11.03,0-20.47-8.66-20.56-19.37v-55.87l29.64-20.63c7.57-5.27,17.93-4.46,17.93,16.05v9.32s17.89-12.35,17.89-12.35v-11.75c0-18.19-7.36-25.4-17.89-19.97l-65.66,45.06v47.18c0,16.22,9.44,30.02,25.12,30.02h20.52c22.79-9.25,37.91-17.95,37.91-47.56v-11.19l-18.38,12.34v5.4Z"/>
      <path d="M167.38,17.78h-.03l-16.3,44.15h0l-46.76,126.47L57.52,61.93h0l-16.3-44.15H3.87c-9.69,0,1.16,7.47,6.9,7.47h-.03c18.17,0,25.15,27.63,27.95,34.92l54.87,148.4h21.42l54.87-148.4c2.81-7.29,10.79-34.92,28.97-34.92,0,0,4.3,0,4.38,0v-7.48h-35.83Z"/>
    </g>
  </g>
</svg>

<svg width="970" height="209" viewBox="0 0 970 209" fill="none" xmlns="http://www.w3.org/2000/svg">
<g clip-path="url(#clip0_1_119)">
<path d="M260.66 200.87C246.66 200.87 237.3 192.11 237.3 166.07V66.71V50.46L190.41 85.14C189.31 85.96 190.25 87.66 191.54 87.18C195.19 85.79 199.65 82.94 204.35 80.4C211.16 76.73 219.42 81.73 219.42 89.46V167.82C219.42 188.95 212.14 200.87 200.7 200.87C200.7 200.87 195.96 200.5 193.28 200.87C186.89 201.75 174.62 208.56 185.52 208.56H274.03V200.87H260.67H260.66Z" fill="white"/>
<path d="M215.63 24.3V41.43L236.55 26.09V0L222.86 10.04C218.32 13.37 215.64 18.66 215.64 24.3H215.63Z" fill="white"/>
<path d="M454.92 162.16V167.56C454.92 191.04 426.65 200.87 426.65 200.87H426.11C415.34 200.87 406.36 187.7 406.36 178.35V79.37L445.81 52.16V46.09L406.36 73.31V16.25V0L359.47 34.68C358.37 35.5 359.31 37.2 360.6 36.72C364.25 35.33 368.71 32.48 373.41 29.94C380.22 26.27 388.48 31.27 388.48 39V85.64L370.51 98.03V104.1L388.48 91.71V148.12H388.49V178.55C388.49 194.77 397.68 208.57 412.95 208.57H429.6C451.78 199.32 472.83 186.54 472.83 161.01V149.82L454.94 162.16H454.92Z" fill="white"/>
<path d="M564.16 89.01C561.02 83.69 555.89 82.47 549.64 85.68L483.39 131.41V161.37C483.39 194.55 505.98 208.57 523.87 208.57C523.87 208.57 567.53 196.36 567.53 161.01V105.66C567.53 98.25 566.31 92.67 564.15 89.02L564.16 89.01ZM549.64 149.36V167.56C549.64 194.4 524.02 200.87 524.02 200.87H521.51C516.2 200.48 501.28 193.51 501.28 158.18V125.5L533.5 103.28C536.99 101.41 540.83 100.92 543.89 102.99C545.15 103.84 546.28 105.13 547.19 106.94C548.7 109.91 549.63 114.28 549.63 120.43V149.36H549.64Z" fill="white"/>
<path d="M665.64 100.02L621.3 130.61V87.68L574.41 122.36C573.31 123.18 574.25 124.88 575.54 124.4C579.19 123.01 583.65 120.16 588.35 117.62C595.16 113.95 603.42 118.95 603.42 126.68L603.44 167.83C603.44 188.96 600.88 199.5 586.04 200.88C579.61 201.48 567.38 208.57 578.28 208.57H647.88V200.88H644.68C626.56 200.88 621.32 192.12 621.32 166.08H621.3V137.09L665.64 106.23V143.96L683.53 131.62V87.67L665.64 100.01V100.02Z" fill="white"/>
<path d="M881.5 200.87C863.38 200.87 858.14 192.11 858.14 166.07H858.12V161.59C858.12 161.39 858.12 161.2 858.12 161V106.28C858.12 88.09 850.76 80.88 840.23 86.31L792.66 119.13L774.57 131.37V163.61L792.66 151.13V125.63L822.3 105C829.87 99.73 840.23 100.54 840.23 121.05V134.54L774.57 179.83V190.47C774.57 200.46 786.57 208.56 798.48 208.56H821.21C828.42 205.55 834.83 202.6 840.22 198.97C840.22 200.86 844.94 208.56 854.59 208.56H884.68V200.87H881.48H881.5ZM820.46 200.87H811.8C801.24 200.87 792.67 192.31 792.67 181.74V173.44L840.24 140.63V167.56C840.24 194.4 820.46 200.87 820.46 200.87Z" fill="white"/>
<path d="M758.3 200.87C744.3 200.87 734.94 192.11 734.94 166.07V66.71V50.46L688.05 85.14C686.95 85.96 687.89 87.66 689.18 87.18C692.83 85.79 697.29 82.94 701.99 80.4C708.8 76.73 717.06 81.73 717.06 89.46V167.82C717.06 188.95 709.78 200.87 698.34 200.87C698.34 200.87 693.6 200.5 690.92 200.87C684.53 201.75 672.26 208.56 683.16 208.56H771.67V200.87H758.31H758.3Z" fill="white"/>
<path d="M713.26 24.3V41.43L734.18 26.09V0L720.49 10.04C715.95 13.37 713.27 18.66 713.27 24.3H713.26Z" fill="white"/>
<path d="M952.07 95.02L904.5 127.84L888.62 138.8V178.56C888.62 194.78 897.81 208.58 913.08 208.58H933.06C955.24 199.33 969.97 190.63 969.97 161.02V149.83L952.08 162.17V167.57C952.08 194.41 932.3 200.88 932.3 200.88H926.26C915.47 200.88 906.72 192.13 906.72 181.34L968.79 138.52L969.98 137.7V82.68L952.09 95.02H952.07ZM906.71 132.8L952.07 101.23V143.96L906.71 175.25V132.8Z" fill="white"/>
<path d="M342.01 167.56C342.01 194.4 321.69 200.87 321.69 200.87H315.49C304.46 200.87 295.02 192.21 294.93 181.5V125.63L324.57 105C332.14 99.73 342.5 100.54 342.5 121.05V130.37L360.39 118.02V106.27C360.39 88.08 353.03 80.87 342.5 86.3L276.84 131.36V178.54C276.84 194.76 286.28 208.56 301.96 208.56H322.48C345.27 199.31 360.39 190.61 360.39 161V149.81L342.01 162.15V167.55V167.56Z" fill="white"/>
<path d="M167.38 17.78H167.35L151.05 61.93L104.29 188.4L57.52 61.93L41.22 17.78H3.86998C-5.82002 17.78 5.02998 25.25 10.77 25.25H10.74C28.91 25.25 35.89 52.88 38.69 60.17L93.56 208.57H114.98L169.85 60.17C172.66 52.88 180.64 25.25 198.82 25.25C198.82 25.25 203.12 25.25 203.2 25.25V17.77H167.37L167.38 17.78Z" fill="white"/>
</g>
<defs>
<clipPath id="clip0_1_119">
<rect width="969.96" height="208.57" fill="white"/>
</clipPath>
</defs>
</svg>
